dist/img/svg/bg/full-construction/lungs.svg

<svg width="246" height="468" viewBox="0 0 246 468" fill="none" xmlns="http://www.w3.org/2000/svg">
<path d="M-43.4366 242.38C-44.31 230.075 -44.9164 201.826 -45.6098 187.181C-53.1366 87.3727 -129.18 66.131 -174.944 162.842C-208.695 233.114 -229.712 330.186 -219.338 399.617C-214.604 428.864 -210.004 467.057 -180.212 468.368C-158.538 468.072 -136.179 440.079 -113.663 434.747C-82.0616 424.876 -46.3623 413.752 -39.3404 371.265C-29.7679 328.108 -44.439 285.003 -43.4366 242.38ZM-166.083 414.171C-178.488 416.144 -176.514 397.509 -178.54 389.833C-180.558 371.16 -180.726 352.334 -179.041 333.628C-178.842 331.419 -177.776 329.378 -176.077 327.952C-174.378 326.527 -172.184 325.832 -169.974 326.02C-167.764 326.208 -165.719 327.263 -164.285 328.955C-162.851 330.647 -162.145 332.839 -162.321 335.05C-163.935 352.527 -163.822 370.12 -161.986 387.574C-161.535 396.723 -154.2 411.772 -166.083 414.171ZM210.048 188.434C158.386 53.8902 76.5756 87.8298 69.5111 187.179C68.8553 197.83 69.1219 213.632 68.1725 224.649L67.3372 241.795C68.6181 285.983 52.6663 330.771 64.2439 375.447C73.058 414.857 107.785 425.451 138.316 434.913C163.594 440.865 187.249 476.118 213.642 466.529C234.461 458.247 239.393 425.629 243.323 399.451C251.956 336.915 239.085 261.405 210.048 188.434ZM185.218 275.584C183.069 276.115 180.797 275.781 178.89 274.655C176.984 273.53 175.594 271.701 175.019 269.562C168.05 241.672 158.449 214.507 146.343 188.434C145.413 186.425 145.312 184.13 146.064 182.047C146.815 179.965 148.357 178.263 150.356 177.311C151.348 176.837 152.425 176.565 153.523 176.511C154.621 176.456 155.719 176.621 156.754 176.994C157.788 177.367 158.738 177.943 159.548 178.686C160.359 179.43 161.014 180.327 161.475 181.325C174.017 208.345 183.982 236.488 191.238 265.381C191.788 267.532 191.463 269.814 190.335 271.726C189.207 273.639 187.367 275.026 185.218 275.584ZM37.0735 125.372C37.0965 142.769 43.1541 159.619 54.2122 173.045C53.5433 177.311 53.1253 181.743 52.7909 186.259C52.2759 196.138 52.3001 212.913 51.4532 223.813L50.9516 234.602C35.7078 226.135 22.4299 214.534 11.9924 200.562C1.53009 214.586 -11.7743 226.243 -27.0504 234.769C-27.3148 226.492 -28.0321 215.404 -28.388 206.751C-28.0904 195.534 -28.7618 184.313 -30.3945 173.212C-19.237 159.766 -13.1168 142.848 -13.0886 125.372V8.36371C-13.082 6.14755 -12.199 4.02405 -10.6326 2.45699C-9.06616 0.889919 -6.94351 0.00661873 -4.72824 0H28.7131C30.9284 0.00661873 33.051 0.889919 34.6175 2.45699C36.1839 4.02405 37.0668 6.14755 37.0735 8.36371V125.372Z" fill="url(#paint0_linear_86_485)"/>
<defs>
<linearGradient id="paint0_linear_86_485" x1="107.959" y1="428.402" x2="-63.7713" y2="-313.937" gradientUnits="userSpaceOnUse">
<stop stop-color="#C9EF9A"/>
<stop offset="0.169186" stop-color="#99DB82"/>
<stop offset="0.275096" stop-color="#67C66B"/>
<stop offset="0.48352" stop-color="#44AC5E"/>
<stop offset="0.670111" stop-color="#3C9F61"/>
<stop offset="0.773853" stop-color="#459C65"/>
<stop offset="0.914936" stop-color="#7AAB6F"/>
<stop offset="1" stop-color="#DCCB83"/>
</linearGradient>
</defs>
</svg>

<svg width="246" height="468" fill="none" xmlns="http://www.w3.org/2000/svg"><path d="M-43.437 242.38c-.873-12.305-1.48-40.554-2.173-55.199-7.527-99.808-83.57-121.05-129.334-24.339-33.751 70.272-54.768 167.344-44.394 236.775 4.734 29.247 9.334 67.44 39.126 68.751 21.674-.296 44.033-28.289 66.549-33.621 31.601-9.871 67.3-20.995 74.323-63.482 9.572-43.157-5.099-86.262-4.097-128.885zm-122.646 171.791c-12.405 1.973-10.431-16.662-12.457-24.338a285.07 285.07 0 01-.501-56.205 8.39 8.39 0 0116.72 1.422 267.2 267.2 0 00.335 52.524c.451 9.149 7.786 24.198-4.097 26.597zm376.131-225.737C158.386 53.89 76.576 87.83 69.511 187.179c-.656 10.651-.39 26.453-1.338 37.47l-.836 17.146c1.281 44.188-14.67 88.976-3.093 133.652 8.814 39.41 43.541 50.004 74.072 59.466 25.278 5.952 48.933 41.205 75.326 31.616 20.819-8.282 25.751-40.9 29.681-67.078 8.633-62.536-4.238-138.046-33.275-211.017zm-24.83 87.15a8.466 8.466 0 01-10.199-6.022 453.963 453.963 0 00-28.676-81.128 8.408 8.408 0 014.013-11.123 8.292 8.292 0 016.398-.317 8.304 8.304 0 014.721 4.331 473.663 473.663 0 0129.763 84.056 8.396 8.396 0 01-6.02 10.203zM37.074 125.372a75.144 75.144 0 0017.138 47.673c-.669 4.266-1.087 8.698-1.421 13.214-.515 9.879-.49 26.654-1.338 37.554l-.501 10.789a123.454 123.454 0 01-38.96-34.04 124.277 124.277 0 01-39.042 34.207c-.265-8.277-.982-19.365-1.338-28.018a194.954 194.954 0 00-2.006-33.539 75.106 75.106 0 0017.305-47.84V8.364A8.39 8.39 0 01-4.729 0h33.442a8.384 8.384 0 018.36 8.364v117.008z" fill="url(#paint0_linear_86_485)"/><defs><linearGradient id="paint0_linear_86_485" x1="107.959" y1="428.402" x2="-63.771" y2="-313.937" gradientUnits="userSpaceOnUse"><stop stop-color="#C9EF9A"/><stop offset=".169" stop-color="#99DB82"/><stop offset=".275" stop-color="#67C66B"/><stop offset=".484" stop-color="#44AC5E"/><stop offset=".67" stop-color="#3C9F61"/><stop offset=".774" stop-color="#459C65"/><stop offset=".915" stop-color="#7AAB6F"/><stop offset="1" stop-color="#DCCB83"/></linearGradient></defs></svg>
